X: 1
T: The Buckfast 5
R: reel
M: 4/4
L: 1/8
K: Bmin
M:5/4
Bd FE DE FA BA|Bd FE DE F2 F2|
Bd FE DE FA BA|FA BF ED E2 E2|
d2 dB de dB AB|dc BA FA B2 BA|
dB de dB dB AB|FA BF ED E2 E2|

